X: 2
T: Gimboling Gyre, The
Z: ceolachan
S: https://thesession.org/tunes/9644#setting20079
R: barndance
M: 4/4
L: 1/8
K: Gmaj
edBG DGBg | fecA E2 ^cd | edcA E2 ^cd | edBG D2 ^cd |eBGE DBdg | fecA f2 ^cd | edcA E=F^FB | G2 g2 G2 :|E^DEF GFGE | DBdg b2 ag | fecA E=F^FB | GDGB g2 AG |E2 EF G2 GA | B^ABd b2 =ag | fecA e=f^fb | g2 d2 G2 :|
